images/types-type-2-1.svg

<svg width="20" height="21" viewBox="0 0 20 21" fill="none" xmlns="http://www.w3.org/2000/svg">
<g clip-path="url(#clip0_0_347)">
<path d="M9.6875 2.93359L1.875 10.7455V20.4998H18.125V11.3705L9.6875 2.93359Z" fill="#EAEAEA"/>
<path d="M5 13.625H9.375V20.5H5V13.625Z" fill="#434854"/>
<path d="M10.625 13H12.5V14.875H10.625V13ZM13.125 13H15V14.875H13.125V13ZM13.125 10.5H15V12.375H13.125V10.5ZM10.625 10.5H12.5V12.375H10.625V10.5Z" fill="#469FCC"/>
<path d="M10.625 10.5H12.5V11.125H10.625V10.5ZM13.125 10.5H15V11.125H13.125V10.5ZM10.625 13H12.5V13.625H10.625V13ZM13.125 13H15V13.625H13.125V13Z" fill="black"/>
<path d="M9.6875 1.75L1.875 9.875V11.75L9.6875 3.9375L18.125 12.375V10.5L9.6875 1.75Z" fill="black"/>
<path d="M19.7769 10.3708L10.5713 1.16516L10.1294 0.72329C10.0714 0.665199 10.0025 0.619113 9.92673 0.587668C9.85091 0.556224 9.76963 0.540039 9.68754 0.540039C9.60546 0.540039 9.52418 0.556224 9.44836 0.587668C9.37254 0.619113 9.30366 0.665199 9.24567 0.72329L8.80379 1.16516L0.223168 9.74579C0.165077 9.80378 0.118991 9.87266 0.0875463 9.94848C0.0561021 10.0243 0.039917 10.1056 0.039917 10.1877C0.039917 10.2697 0.0561021 10.351 0.0875463 10.4268C0.118991 10.5027 0.165077 10.5715 0.223168 10.6295L0.665043 11.0714C0.723035 11.1295 0.791913 11.1756 0.867735 11.207C0.943557 11.2385 1.02483 11.2547 1.10692 11.2547C1.189 11.2547 1.27028 11.2385 1.3461 11.207C1.42192 11.1756 1.4908 11.1295 1.54879 11.0714L9.68754 2.93391L18.4507 11.697C18.5087 11.7551 18.5775 11.8012 18.6534 11.8327C18.7292 11.8641 18.8105 11.8803 18.8925 11.8803C18.9746 11.8803 19.0559 11.8641 19.1317 11.8327C19.2076 11.8012 19.2764 11.7551 19.3344 11.697L19.7763 11.2552C19.8936 11.1379 19.9595 10.9789 19.9597 10.8131C19.9598 10.6473 19.894 10.4882 19.7769 10.3708Z" fill="#EF4D4D"/>
<path d="M4.65313 20.5C4.87789 20.1216 4.99763 19.6901 5 19.25C5 18.587 4.73661 17.9511 4.26777 17.4822C3.79893 17.0134 3.16304 16.75 2.5 16.75C1.83696 16.75 1.20107 17.0134 0.732233 17.4822C0.263392 17.9511 0 18.587 0 19.25C0 19.7075 0.131875 20.1306 0.346875 20.5H4.65313ZM17.5 16.75C17.0208 16.7505 16.552 16.889 16.1494 17.1489C15.7469 17.4088 15.4277 17.7791 15.23 18.2156C14.9665 18.076 14.6732 18.002 14.375 18C13.8777 18 13.4008 18.1975 13.0492 18.5492C12.6975 18.9008 12.5 19.3777 12.5 19.875C12.5 20.0956 12.545 20.3038 12.615 20.5H19.6537C19.878 20.1214 19.9975 19.69 20 19.25C20 18.587 19.7366 17.9511 19.2678 17.4822C18.7989 17.0134 18.163 16.75 17.5 16.75Z" fill="#3AAD73"/>
<path d="M15.23 18.2156C14.9665 18.076 14.6732 18.002 14.375 18C13.8777 18 13.4008 18.1975 13.0492 18.5492C12.6975 18.9008 12.5 19.3777 12.5 19.875C12.5 20.0956 12.545 20.3038 12.615 20.5H15.3469C15.1221 20.1216 15.0024 19.6901 15 19.25C15 18.88 15.0856 18.5319 15.23 18.2156Z" fill="black"/>
</g>
<defs>
<clipPath id="clip0_0_347">
<rect width="20" height="20" fill="white" transform="translate(0 0.5)"/>
</clipPath>
</defs>
</svg>

<svg width="20" height="21" fill="none" xmlns="http://www.w3.org/2000/svg"><g clip-path="url(#clip0_0_347)"><path d="M9.688 2.934l-7.813 7.811V20.5h16.25v-9.13L9.687 2.934z" fill="#EAEAEA"/><path d="M5 13.625h4.375V20.5H5v-6.875z" fill="#434854"/><path d="M10.625 13H12.5v1.875h-1.875V13zm2.5 0H15v1.875h-1.875V13zm0-2.5H15v1.875h-1.875V10.5zm-2.5 0H12.5v1.875h-1.875V10.5z" fill="#469FCC"/><path d="M10.625 10.5H12.5v.625h-1.875V10.5zm2.5 0H15v.625h-1.875V10.5zm-2.5 2.5H12.5v.625h-1.875V13zm2.5 0H15v.625h-1.875V13z" fill="#000"/><path d="M9.688 1.75L1.875 9.875v1.875l7.813-7.813 8.437 8.438V10.5L9.687 1.75z" fill="#000"/><path d="M19.777 10.37L10.57 1.166l-.44-.443a.625.625 0 00-.883 0l-.442.442-8.58 8.58a.624.624 0 000 .885l.441.441a.623.623 0 00.884 0l8.139-8.137 8.763 8.763a.625.625 0 00.883 0l.442-.442a.626.626 0 000-.884z" fill="#EF4D4D"/><path d="M4.653 20.5c.225-.378.345-.81.347-1.25a2.5 2.5 0 00-5 0c0 .457.132.88.347 1.25h4.306zM17.5 16.75a2.495 2.495 0 00-2.27 1.466 1.853 1.853 0 00-.855-.216 1.875 1.875 0 00-1.875 1.875c0 .22.045.429.115.625h7.039A2.48 2.48 0 0020 19.25a2.5 2.5 0 00-2.5-2.5z" fill="#3AAD73"/><path d="M15.23 18.216a1.853 1.853 0 00-.855-.216 1.875 1.875 0 00-1.875 1.875c0 .22.045.429.115.625h2.732A2.474 2.474 0 0115 19.25c0-.37.086-.718.23-1.034z" fill="#000"/></g><defs><clipPath id="clip0_0_347"><path fill="#fff" transform="translate(0 .5)" d="M0 0h20v20H0z"/></clipPath></defs></svg>
